public/images/controls/playstation/playstation_Options_button.svg

<?xml version="1.0" encoding="utf-8"?>
<!-- Generator: Adobe Illustrator 16.0.0, SVG Export Plug-In . SVG Version: 6.00 Build 0)  -->
<!DOCTYPE svg PUBLIC "-//W3C//DTD SVG 1.1//EN" "http://www.w3.org/Graphics/SVG/1.1/DTD/svg11.dtd">
<svg version="1.1" id="Capa_1" xmlns="http://www.w3.org/2000/svg" xmlns:xlink="http://www.w3.org/1999/xlink" x="0px" y="0px"
	 width="20px" height="24.188px" viewBox="0 0 20 24.188" enable-background="new 0 0 20 24.188" xml:space="preserve">
<g>
	<g>
		<path d="M1.715,3.815c-0.551,0-0.977-0.162-1.271-0.484C0.146,3.008,0,2.543,0,1.937c0-0.302,0.037-0.572,0.111-0.813
			c0.076-0.24,0.188-0.444,0.334-0.61c0.146-0.167,0.326-0.295,0.539-0.382C1.195,0.043,1.439,0,1.715,0
			c0.273,0,0.518,0.043,0.73,0.132C2.658,0.219,2.836,0.348,2.98,0.517C3.123,0.685,3.232,0.89,3.309,1.133
			c0.076,0.242,0.113,0.515,0.113,0.82c0,0.616-0.146,1.082-0.439,1.394S2.268,3.815,1.715,3.815z M1.715,3.174
			c0.133,0,0.26-0.024,0.377-0.073c0.119-0.048,0.223-0.122,0.311-0.22c0.088-0.099,0.156-0.226,0.207-0.38
			C2.66,2.347,2.684,2.165,2.684,1.953c0-0.424-0.082-0.745-0.246-0.963C2.271,0.771,2.031,0.662,1.715,0.662
			C1.4,0.662,1.158,0.771,0.99,0.99c-0.17,0.219-0.254,0.54-0.254,0.963c0,0.423,0.086,0.732,0.256,0.928
			C1.162,3.077,1.404,3.174,1.715,3.174z"/>
		<path d="M3.625,3.691V0.118h1.578c0.176,0,0.332,0.029,0.473,0.088s0.26,0.142,0.361,0.248c0.1,0.106,0.178,0.229,0.23,0.369
			C6.32,0.963,6.35,1.114,6.35,1.275c0,0.162-0.029,0.311-0.082,0.45C6.215,1.862,6.137,1.98,6.037,2.079
			C5.936,2.178,5.816,2.255,5.676,2.311S5.379,2.395,5.203,2.395h-0.83v1.296H3.625z M5.084,1.787c0.215,0,0.371-0.05,0.465-0.148
			C5.645,1.54,5.691,1.411,5.691,1.253c0-0.151-0.047-0.274-0.143-0.372c-0.094-0.096-0.25-0.145-0.465-0.145H4.373v1.05H5.084z"/>
		<path d="M7.445,3.691V0.742H6.369V0.118h2.906v0.624H8.193v2.949H7.445z"/>
		<path d="M9.426,3.691V0.118h0.748v3.573H9.426z"/>
		<path d="M12.088,3.815c-0.551,0-0.975-0.162-1.271-0.484c-0.295-0.323-0.443-0.788-0.443-1.394c0-0.302,0.037-0.572,0.113-0.813
			c0.074-0.24,0.186-0.444,0.332-0.61c0.148-0.167,0.328-0.295,0.539-0.382C11.57,0.043,11.813,0,12.088,0
			c0.273,0,0.518,0.043,0.73,0.132c0.213,0.087,0.391,0.216,0.535,0.385c0.143,0.168,0.254,0.373,0.328,0.616
			c0.076,0.242,0.113,0.515,0.113,0.82c0,0.616-0.146,1.082-0.439,1.394C13.064,3.659,12.643,3.815,12.088,3.815z M12.088,3.174
			c0.135,0,0.26-0.024,0.377-0.073c0.119-0.048,0.223-0.122,0.311-0.22c0.088-0.099,0.156-0.226,0.207-0.38
			c0.051-0.155,0.076-0.337,0.076-0.548c0-0.424-0.084-0.745-0.248-0.963c-0.166-0.219-0.406-0.328-0.723-0.328
			c-0.314,0-0.557,0.109-0.725,0.328s-0.252,0.54-0.252,0.963c0,0.423,0.084,0.732,0.254,0.928
			C11.535,3.077,11.777,3.174,12.088,3.174z"/>
		<path d="M16.223,3.691l-1.529-2.4v2.4H14V0.118h0.791l1.42,2.297V0.118h0.699v3.573H16.223z"/>
		<path d="M19.176,1.173c-0.02-0.183-0.084-0.32-0.199-0.409c-0.115-0.09-0.287-0.135-0.516-0.135c-0.424,0-0.635,0.146-0.635,0.436
			c0,0.104,0.043,0.191,0.131,0.261c0.088,0.071,0.229,0.129,0.422,0.175c0.23,0.054,0.428,0.104,0.598,0.151
			c0.168,0.046,0.322,0.1,0.463,0.161c0.078,0.033,0.154,0.073,0.223,0.122c0.07,0.048,0.129,0.108,0.178,0.18
			s0.088,0.158,0.115,0.258C19.984,2.473,20,2.595,20,2.738c0,0.172-0.037,0.325-0.109,0.458C19.82,3.328,19.723,3.44,19.6,3.532
			c-0.121,0.091-0.266,0.161-0.43,0.21c-0.164,0.048-0.338,0.073-0.521,0.073c-0.52,0-0.912-0.101-1.174-0.302
			c-0.262-0.2-0.398-0.498-0.414-0.893h0.723c0.002,0.183,0.076,0.327,0.223,0.433c0.145,0.105,0.326,0.159,0.545,0.159
			c0.238,0,0.416-0.043,0.539-0.129c0.121-0.085,0.184-0.203,0.184-0.35c0-0.058-0.008-0.11-0.023-0.159
			c-0.014-0.048-0.041-0.092-0.082-0.132c-0.043-0.04-0.098-0.074-0.17-0.105s-0.166-0.058-0.279-0.083
			c-0.273-0.057-0.51-0.116-0.709-0.175c-0.197-0.059-0.361-0.132-0.49-0.22c-0.131-0.088-0.227-0.195-0.287-0.32
			c-0.061-0.126-0.092-0.285-0.092-0.479c0-0.147,0.029-0.285,0.082-0.414s0.137-0.241,0.248-0.336s0.248-0.17,0.41-0.226
			C18.045,0.027,18.238,0,18.461,0c0.215,0,0.408,0.027,0.58,0.083c0.172,0.055,0.32,0.134,0.443,0.236
			c0.125,0.103,0.221,0.226,0.289,0.372c0.066,0.146,0.105,0.306,0.113,0.482H19.176z"/>
	</g>
	<g>
		<linearGradient id="SVGID_1_" gradientUnits="userSpaceOnUse" x1="9.999" y1="4.2104" x2="9.999" y2="24.188">
			<stop  offset="0" style="stop-color:#5B5B5F"/>
			<stop  offset="1" style="stop-color:#141414"/>
		</linearGradient>
		<path fill="url(#SVGID_1_)" d="M16.318,18.638c0,3.066-2.828,5.55-6.318,5.55l0,0c-3.49,0-6.32-2.483-6.32-5.55V9.759
			C3.68,6.695,6.51,4.21,10,4.21l0,0c3.49,0,6.318,2.484,6.318,5.549V18.638z"/>
		<linearGradient id="SVGID_2_" gradientUnits="userSpaceOnUse" x1="9.999" y1="4.2104" x2="9.999" y2="24.188">
			<stop  offset="0" style="stop-color:#5B5B5F"/>
			<stop  offset="0.0231" style="stop-color:#59595D"/>
			<stop  offset="0.4507" style="stop-color:#333335"/>
			<stop  offset="0.7912" style="stop-color:#1C1C1D"/>
			<stop  offset="1" style="stop-color:#141414"/>
		</linearGradient>
		<path fill="url(#SVGID_2_)" d="M10,5.647c2.691,0,4.881,1.845,4.881,4.112v8.878c0,2.268-2.189,4.112-4.881,4.112
			s-4.883-1.845-4.883-4.112V9.759C5.117,7.492,7.309,5.647,10,5.647 M10,4.21c-3.49,0-6.32,2.484-6.32,5.549v8.878
			c0,3.066,2.83,5.55,6.32,5.55s6.318-2.483,6.318-5.55V9.759C16.318,6.695,13.49,4.21,10,4.21L10,4.21z"/>
	</g>
</g>
</svg>

<svg version="1.2" xmlns="http://www.w3.org/2000/svg" viewBox="0 0 20 25" width="20" height="25">
	<defs>
		<clipPath clipPathUnits="userSpaceOnUse" id="cp1">
			<path d="m19.18 1.17q-0.03-0.27-0.2-0.41-0.18-0.13-0.52-0.13-0.63 0-0.63 0.43 0 0.16 0.13 0.27 0.13 0.1 0.42 0.17 0.34 0.08 0.6 0.15 0.25 0.07 0.46 0.16 0.12 0.05 0.22 0.13 0.11 0.07 0.18 0.18 0.07 0.1 0.12 0.25 0.04 0.15 0.04 0.37 0 0.26-0.11 0.46-0.11 0.19-0.29 0.33-0.18 0.14-0.43 0.21-0.25 0.07-0.52 0.07-0.78 0-1.17-0.3-0.4-0.3-0.42-0.89h0.72q0.01 0.27 0.23 0.43 0.21 0.16 0.54 0.16 0.36 0 0.54-0.13 0.18-0.13 0.19-0.35-0.01-0.08-0.03-0.16-0.02-0.07-0.08-0.13-0.06-0.06-0.17-0.1-0.11-0.05-0.28-0.09-0.41-0.08-0.71-0.17-0.29-0.09-0.49-0.22-0.19-0.13-0.28-0.32-0.1-0.19-0.1-0.48 0-0.22 0.09-0.41 0.08-0.2 0.24-0.34 0.17-0.14 0.41-0.23 0.25-0.08 0.58-0.08 0.32 0 0.58 0.08 0.26 0.09 0.44 0.24 0.19 0.15 0.29 0.37 0.1 0.22 0.12 0.48z"/>
		</clipPath>
		<image  width="20" height="25" id="img1" href="data:image/png;base64,iVBORw0KGgoAAAANSUhEUgAAABQAAAAZAQMAAAAL2ZyQAAAAAXNSR0IB2cksfwAAAANQTFRF////p8QbyAAAAA9JREFUeJxjZGBgYKQxBgAFeAAaGyYHBgAAAABJRU5ErkJggg=="/>
		<clipPath clipPathUnits="userSpaceOnUse" id="cp2">
			<path d="m16.22 3.69l-1.53-2.4v2.4h-0.69v-3.57h0.79l1.42 2.29v-2.29h0.7v3.57z"/>
		</clipPath>
		<image  width="20" height="25" id="img2" href="data:image/png;base64,iVBORw0KGgoAAAANSUhEUgAAABQAAAAZAQMAAAAL2ZyQAAAAAXNSR0IB2cksfwAAAANQTFRF////p8QbyAAAAA9JREFUeJxjZGBgYKQxBgAFeAAaGyYHBgAAAABJRU5ErkJggg=="/>
		<clipPath clipPathUnits="userSpaceOnUse" id="cp3">
			<path d="m12.09 3.81q-0.83 0-1.27-0.48-0.45-0.48-0.45-1.39 0-0.46 0.12-0.82 0.11-0.36 0.33-0.61 0.22-0.25 0.54-0.38 0.32-0.13 0.73-0.13 0.41 0 0.73 0.13 0.32 0.13 0.53 0.39 0.22 0.25 0.33 0.61 0.11 0.37 0.11 0.82 0 0.93-0.44 1.4-0.43 0.47-1.26 0.46zm0-0.64q0.2 0 0.38-0.07 0.17-0.07 0.31-0.22 0.13-0.15 0.2-0.38 0.08-0.23 0.08-0.55 0-0.63-0.25-0.96-0.25-0.33-0.72-0.33-0.47 0-0.73 0.33-0.25 0.33-0.25 0.96 0 0.64 0.26 0.93 0.25 0.29 0.72 0.29z"/>
		</clipPath>
		<image  width="20" height="25" id="img3" href="data:image/png;base64,iVBORw0KGgoAAAANSUhEUgAAABQAAAAZAQMAAAAL2ZyQAAAAAXNSR0IB2cksfwAAAANQTFRF////p8QbyAAAAA9JREFUeJxjZGBgYKQxBgAFeAAaGyYHBgAAAABJRU5ErkJggg=="/>
		<clipPath clipPathUnits="userSpaceOnUse" id="cp4">
			<path d="m9.43 3.69v-3.57h0.74v3.57z"/>
		</clipPath>
		<image  width="20" height="25" id="img4" href="data:image/png;base64,iVBORw0KGgoAAAANSUhEUgAAABQAAAAZAQMAAAAL2ZyQAAAAAXNSR0IB2cksfwAAAANQTFRF////p8QbyAAAAA9JREFUeJxjZGBgYKQxBgAFeAAaGyYHBgAAAABJRU5ErkJggg=="/>
		<clipPath clipPathUnits="userSpaceOnUse" id="cp5">
			<path d="m7.45 3.69v-2.95h-1.08v-0.62h2.91v0.62h-1.09v2.95z"/>
		</clipPath>
		<image  width="20" height="25" id="img5" href="data:image/png;base64,iVBORw0KGgoAAAANSUhEUgAAABQAAAAZAQMAAAAL2ZyQAAAAAXNSR0IB2cksfwAAAANQTFRF////p8QbyAAAAA9JREFUeJxjZGBgYKQxBgAFeAAaGyYHBgAAAABJRU5ErkJggg=="/>
		<clipPath clipPathUnits="userSpaceOnUse" id="cp6">
			<path d="m3.63 3.69v-3.57h1.57q0.27 0 0.48 0.09 0.21 0.08 0.36 0.24 0.15 0.16 0.23 0.37 0.08 0.21 0.08 0.45 0 0.25-0.08 0.45-0.08 0.21-0.23 0.36-0.15 0.15-0.36 0.23-0.21 0.09-0.48 0.08h-0.83v1.3zm1.46-1.9q0.33 0 0.47-0.15 0.14-0.15 0.14-0.39 0-0.22-0.14-0.37-0.15-0.14-0.47-0.14h-0.71v1.05c0 0 0.71 0 0.71 0z"/>
		</clipPath>
		<image  width="20" height="25" id="img6" href="data:image/png;base64,iVBORw0KGgoAAAANSUhEUgAAABQAAAAZAQMAAAAL2ZyQAAAAAXNSR0IB2cksfwAAAANQTFRF////p8QbyAAAAA9JREFUeJxjZGBgYKQxBgAFeAAaGyYHBgAAAABJRU5ErkJggg=="/>
		<clipPath clipPathUnits="userSpaceOnUse" id="cp7">
			<path d="m1.72 3.81q-0.83 0-1.28-0.48-0.44-0.48-0.44-1.39 0-0.46 0.11-0.82 0.12-0.36 0.34-0.61 0.21-0.25 0.53-0.38 0.32-0.13 0.74-0.13 0.41 0 0.73 0.13 0.31 0.13 0.53 0.39 0.21 0.25 0.33 0.61 0.11 0.37 0.11 0.82 0 0.93-0.44 1.4-0.44 0.46-1.26 0.46zm0-0.64q0.2 0 0.37-0.07 0.18-0.07 0.31-0.22 0.13-0.15 0.21-0.38 0.07-0.23 0.07-0.55 0-0.63-0.24-0.96-0.25-0.33-0.72-0.33-0.48 0-0.73 0.33-0.25 0.33-0.25 0.96 0 0.64 0.25 0.93 0.26 0.29 0.72 0.29z"/>
		</clipPath>
		<image  width="20" height="25" id="img7" href="data:image/png;base64,iVBORw0KGgoAAAANSUhEUgAAABQAAAAZAQMAAAAL2ZyQAAAAAXNSR0IB2cksfwAAAANQTFRF////p8QbyAAAAA9JREFUeJxjZGBgYKQxBgAFeAAaGyYHBgAAAABJRU5ErkJggg=="/>
		<clipPath clipPathUnits="userSpaceOnUse" id="cp8">
			<path d="m16.32 18.64c0 3.06-2.83 5.55-6.32 5.55-3.49 0-6.32-2.48-6.32-5.55v-8.88c0-3.06 2.83-5.55 6.32-5.55 3.49 0 6.32 2.48 6.32 5.55z"/>
		</clipPath>
		<linearGradient id="g1" x2="1" gradientUnits="userSpaceOnUse" gradientTransform="matrix(0,19.978,-12.638,0,9.999,4.21)">
			<stop offset="0" stop-color="#5b5b5f"/>
			<stop offset="1" stop-color="#141414"/>
		</linearGradient>
		<image  width="20" height="25" id="img8" href="data:image/png;base64,iVBORw0KGgoAAAANSUhEUgAAABQAAAAZAQMAAAAL2ZyQAAAAAXNSR0IB2cksfwAAAANQTFRF////p8QbyAAAAA9JREFUeJxjZGBgYKQxBgAFeAAaGyYHBgAAAABJRU5ErkJggg=="/>
	</defs>
	<style>
		.s0 { fill: #000000 } 
		.s1 { fill: url(#g1) } 
	</style>
	<g>
		<g>
			<g clip-path="url(#cp1)">
				<path class="s0" d="m19.18 1.17q-0.03-0.27-0.2-0.41-0.18-0.13-0.52-0.13-0.63 0-0.63 0.43 0 0.16 0.13 0.27 0.13 0.1 0.42 0.17 0.34 0.08 0.6 0.15 0.25 0.07 0.46 0.16 0.12 0.05 0.22 0.13 0.11 0.07 0.18 0.18 0.07 0.1 0.12 0.25 0.04 0.15 0.04 0.37 0 0.26-0.11 0.46-0.11 0.19-0.29 0.33-0.18 0.14-0.43 0.21-0.25 0.07-0.52 0.07-0.78 0-1.17-0.3-0.4-0.3-0.42-0.89h0.72q0.01 0.27 0.23 0.43 0.21 0.16 0.54 0.16 0.36 0 0.54-0.13 0.18-0.13 0.19-0.35-0.01-0.08-0.03-0.16-0.02-0.07-0.08-0.13-0.06-0.06-0.17-0.1-0.11-0.05-0.28-0.09-0.41-0.08-0.71-0.17-0.29-0.09-0.49-0.22-0.19-0.13-0.28-0.32-0.1-0.19-0.1-0.48 0-0.22 0.09-0.41 0.08-0.2 0.24-0.34 0.17-0.14 0.41-0.23 0.25-0.08 0.58-0.08 0.32 0 0.58 0.08 0.26 0.09 0.44 0.24 0.19 0.15 0.29 0.37 0.1 0.22 0.12 0.48z"/>
				<use id="Capa 1 copy" href="#img1" x="0" y="0"/>
			</g>
		</g>
		<g id="Layer copy 8">
			<g clip-path="url(#cp2)">
				<path class="s0" d="m16.22 3.69l-1.53-2.4v2.4h-0.69v-3.57h0.79l1.42 2.29v-2.29h0.7v3.57z"/>
				<use id="Capa 1 copy" href="#img2" x="0" y="0"/>
			</g>
		</g>
		<g id="Layer copy 9">
			<g clip-path="url(#cp3)">
				<path class="s0" d="m12.09 3.81q-0.83 0-1.27-0.48-0.45-0.48-0.45-1.39 0-0.46 0.12-0.82 0.11-0.36 0.33-0.61 0.22-0.25 0.54-0.38 0.32-0.13 0.73-0.13 0.41 0 0.73 0.13 0.32 0.13 0.53 0.39 0.22 0.25 0.33 0.61 0.11 0.37 0.11 0.82 0 0.93-0.44 1.4-0.43 0.47-1.26 0.46zm0-0.64q0.2 0 0.38-0.07 0.17-0.07 0.31-0.22 0.13-0.15 0.2-0.38 0.08-0.23 0.08-0.55 0-0.63-0.25-0.96-0.25-0.33-0.72-0.33-0.47 0-0.73 0.33-0.25 0.33-0.25 0.96 0 0.64 0.26 0.93 0.25 0.29 0.72 0.29z"/>
				<use id="Capa 1 copy" href="#img3" x="0" y="0"/>
			</g>
		</g>
		<g id="Layer copy 10">
			<g clip-path="url(#cp4)">
				<path class="s0" d="m9.43 3.69v-3.57h0.74v3.57z"/>
				<use id="Capa 1 copy" href="#img4" x="0" y="0"/>
			</g>
		</g>
		<g id="Layer copy 11">
			<g clip-path="url(#cp5)">
				<path class="s0" d="m7.45 3.69v-2.95h-1.08v-0.62h2.91v0.62h-1.09v2.95z"/>
				<use id="Capa 1 copy" href="#img5" x="0" y="0"/>
			</g>
		</g>
		<g id="Layer copy 12">
			<g clip-path="url(#cp6)">
				<path class="s0" d="m3.63 3.69v-3.57h1.57q0.27 0 0.48 0.09 0.21 0.08 0.36 0.24 0.15 0.16 0.23 0.37 0.08 0.21 0.08 0.45 0 0.25-0.08 0.45-0.08 0.21-0.23 0.36-0.15 0.15-0.36 0.23-0.21 0.09-0.48 0.08h-0.83v1.3zm1.46-1.9q0.33 0 0.47-0.15 0.14-0.15 0.14-0.39 0-0.22-0.14-0.37-0.15-0.14-0.47-0.14h-0.71v1.05c0 0 0.71 0 0.71 0z"/>
				<use id="Capa 1 copy" href="#img6" x="0" y="0"/>
			</g>
		</g>
		<g id="Layer copy 13">
			<g clip-path="url(#cp7)">
				<path class="s0" d="m1.72 3.81q-0.83 0-1.28-0.48-0.44-0.48-0.44-1.39 0-0.46 0.11-0.82 0.12-0.36 0.34-0.61 0.21-0.25 0.53-0.38 0.32-0.13 0.74-0.13 0.41 0 0.73 0.13 0.31 0.13 0.53 0.39 0.21 0.25 0.33 0.61 0.11 0.37 0.11 0.82 0 0.93-0.44 1.4-0.44 0.46-1.26 0.46zm0-0.64q0.2 0 0.37-0.07 0.18-0.07 0.31-0.22 0.13-0.15 0.21-0.38 0.07-0.23 0.07-0.55 0-0.63-0.24-0.96-0.25-0.33-0.72-0.33-0.48 0-0.73 0.33-0.25 0.33-0.25 0.96 0 0.64 0.25 0.93 0.26 0.29 0.72 0.29z"/>
				<use id="Capa 1 copy" href="#img7" x="0" y="0"/>
			</g>
		</g>
		<g>
			<g clip-path="url(#cp8)">
				<path class="s1" d="m16.32 18.64c0 3.06-2.83 5.55-6.32 5.55-3.49 0-6.32-2.48-6.32-5.55v-8.88c0-3.06 2.83-5.55 6.32-5.55 3.49 0 6.32 2.48 6.32 5.55z"/>
				<use id="Capa 1" href="#img8" x="0" y="0"/>
			</g>
		</g>
	</g>
</svg>
